icons/op-time-tracking-running-24.svg

<svg width="24" height="24" viewBox="0 0 24 24" fill="none" xmlns="http://www.w3.org/2000/svg">
<path fill-rule="evenodd" clip-rule="evenodd" d="M19.7013 12.137C19.7013 9.01885 17.1501 6.46767 14.032 6.46767C10.9139 6.46767 8.36269 9.01885 8.36269 12.137C8.36269 13.5314 8.87294 14.8125 9.71596 15.8028C9.29883 15.4311 8.74897 15.2053 8.14636 15.2053C7.65722 15.2053 7.20283 15.3541 6.82597 15.6089C6.31734 14.5581 6.03198 13.3801 6.03198 12.137C6.03198 7.72751 9.62253 4.13696 14.032 4.13696C18.4414 4.13696 22.032 7.72751 22.032 12.137C22.032 16.5464 18.4414 20.137 14.032 20.137C13.3549 20.137 12.6971 20.0523 12.0686 19.893C13.1058 19.7173 13.9128 18.8651 14.0199 17.8062L14.032 17.8063C17.1501 17.8063 19.7013 15.2551 19.7013 12.137ZM13.8208 11.886C13.6598 11.7849 13.5595 11.6113 13.5595 11.4126V9.08184C13.5595 8.76688 13.8115 8.48342 14.158 8.48342C14.4729 8.48342 14.7249 8.76688 14.7249 9.08184V11.1155L17.4336 13.2708C17.6855 13.4913 17.717 13.8378 17.528 14.0897C17.4021 14.2472 17.2446 14.3102 17.0556 14.3102C16.9296 14.3102 16.8036 14.2787 16.7091 14.1842L13.8208 11.886ZM10.6716 17.5658C10.6716 17.0135 11.1193 16.5658 11.6716 16.5658C12.2239 16.5658 12.6716 17.0135 12.6716 17.5658C12.6716 18.1181 12.2239 18.5658 11.6716 18.5658C11.1193 18.5658 10.6716 18.1181 10.6716 17.5658ZM4.62085 16.5658C4.06856 16.5658 3.62085 17.0135 3.62085 17.5658C3.62085 18.1181 4.06856 18.5658 4.62085 18.5658C5.17313 18.5658 5.62085 18.1181 5.62085 17.5658C5.62085 17.0135 5.17313 16.5658 4.62085 16.5658ZM7.14624 17.5658C7.14624 17.0135 7.59396 16.5658 8.14624 16.5658C8.69852 16.5658 9.14624 17.0135 9.14624 17.5658C9.14624 18.1181 8.69852 18.5658 8.14624 18.5658C7.59396 18.5658 7.14624 18.1181 7.14624 17.5658Z" fill="black"/>
</svg>

<svg xmlns="http://www.w3.org/2000/svg" width="24" height="24" viewBox="0 0 24 24"><path d="M19.701 12.137c0-3.118-2.551-5.669-5.669-5.669-3.118 0-5.669 2.551-5.669 5.669 0 1.394.51 2.675 1.353 3.666a2.35 2.35 0 0 0-1.57-.598c-.489 0-.943.149-1.32.404a7.944 7.944 0 0 1-.794-3.472c0-4.409 3.591-8 8-8s8 3.591 8 8-3.591 8-8 8a7.991 7.991 0 0 1-1.963-.244 2.362 2.362 0 0 0 1.951-2.087h.012c3.118 0 5.669-2.551 5.669-5.669Zm-5.88-.251a.554.554 0 0 1-.262-.473V9.082c0-.315.252-.599.599-.599.315 0 .567.284.567.599v2.034l2.709 2.155c.251.22.283.567.094.819a.567.567 0 0 1-.472.22.474.474 0 0 1-.347-.126Zm-3.149 5.68a1 1 0 1 1 2 0 1 1 0 0 1-2 0Zm-6.051-1a1 1 0 1 1 0 2 1 1 0 0 1 0-2Zm2.525 1a1 1 0 1 1 2 0 1 1 0 0 1-2 0Z"/></svg>
